X: 14970
T: Gemima
R: reel
M: 4/4
K: Dmajor
FAdA BAFB|AFED EDB,D|A,3B, DEFA|BFAF E2DE|
FAdA BAFB|AFED EDB,D|A,3B, DEFA|BFAF D2DE:|
|:FA,A,D zG, B,G,|A,B,DE FGFE|FA,A, D zG, B,G,|A,B,DE D2DE|
FA,A, D zG, B,G,|A,B,DE FGFE|FGAF GABA|ABcA dBAG:|

